src/next/cmd/ko/lc_verticaltext.svg

<svg height="24" width="24" xmlns="http://www.w3.org/2000/svg" xmlns:xlink="http://www.w3.org/1999/xlink"><linearGradient id="a" gradientUnits="userSpaceOnUse" x1="66.78281" x2="66.78281" y1="101.332733" y2="-5.332433"><stop offset="0" stop-color="#1c1c1c"/><stop offset=".5" stop-color="#888"/><stop offset="1"/></linearGradient><g transform="matrix(0 .1875 -.1875 0 23.999999 .999996)"><path d="m54.892799 3.2812959v-2.79470843z" fill="#fff" fill-opacity=".756881"/><g fill="#a4c0e4"><path d="m29.134871 93.864357h70.035614v.916678h-70.035614z" transform="matrix(1.5991885 0 0 -5.8180975 -41.258811 663.44531)"/><path d="m10.66668 5.33318h5.333339v117.33348h-5.333339z"/><path d="m106.6668 5.33318h5.33334v117.33348h-5.33334z"/></g><path d="m80.94925 10.668985v95.996995l10.66652-.002v-38.39862h14.39955v-9.5997h-14.39955v-47.998485zm-64.29775 9.598875v9.59969h43.19865c-.2249 9.633-1.46586 27.5367-5.70283 37.40652-5.32917 12.41399-18.45417 25.00127-37.49582 24.99153v9.59971c24.157.0128 39.01897-14.11381 45.84232-30.00845 6.82336-15.89463 7.27599-33.51267 6.95603-44.59548v-6.99352z" fill="url(#a)" fill-rule="evenodd" stroke-width=".916667"/></g></svg>

<?xml version="1.0" encoding="UTF-8" standalone="no"?>
<svg
   xmlns:dc="http://purl.org/dc/elements/1.1/"
   xmlns:cc="http://creativecommons.org/ns#"
   xmlns:rdf="http://www.w3.org/1999/02/22-rdf-syntax-ns#"
   xmlns:svg="http://www.w3.org/2000/svg"
   xmlns="http://www.w3.org/2000/svg"
   xmlns:xlink="http://www.w3.org/1999/xlink"
   xmlns:sodipodi="http://sodipodi.sourceforge.net/DTD/sodipodi-0.dtd"
   xmlns:inkscape="http://www.inkscape.org/namespaces/inkscape"
   height="24"
   width="24"
   version="1.1"
   id="svg23"
   sodipodi:docname="lc_verticaltext.svg"
   inkscape:version="0.92.4 (unknown)"
   inkscape:export-filename="/home/rizmut/Dokumen/Rizmut/Github/libreoffice-style-karasa-jaga/build/next/cmd/ko/lc_verticaltext.png"
   inkscape:export-xdpi="96"
   inkscape:export-ydpi="96">
  <metadata
     id="metadata29">
    <rdf:RDF>
      <cc:Work
         rdf:about="">
        <dc:format>image/svg+xml</dc:format>
        <dc:type
           rdf:resource="http://purl.org/dc/dcmitype/StillImage" />
        <dc:title></dc:title>
      </cc:Work>
    </rdf:RDF>
  </metadata>
  <defs
     id="defs27">
    <linearGradient
       id="c"
       gradientTransform="matrix(0,-0.171875,0.171875,0,53.180838,-29.147731)"
       gradientUnits="userSpaceOnUse"
       x1="69.8172"
       x2="69.8172"
       xlink:href="#a-3"
       y1="110.5457"
       y2="-5.8162999" />
    <linearGradient
       id="a-3">
      <stop
         offset="0"
         stop-color="#1c1c1c"
         id="stop2-6" />
      <stop
         offset=".5"
         stop-color="#888"
         id="stop4-7" />
      <stop
         offset="1"
         id="stop6-5" />
    </linearGradient>
    <linearGradient
       id="c-5"
       gradientTransform="matrix(0.91666666,0,0,0.91666666,2.78371,-8.25e-4)"
       gradientUnits="userSpaceOnUse"
       x1="69.8172"
       x2="69.8172"
       xlink:href="#a-3"
       y1="110.5457"
       y2="-5.8162999" />
  </defs>
  <sodipodi:namedview
     pagecolor="#ffffff"
     bordercolor="#666666"
     borderopacity="1"
     objecttolerance="10"
     gridtolerance="10"
     guidetolerance="10"
     inkscape:pageopacity="0"
     inkscape:pageshadow="2"
     inkscape:window-width="1366"
     inkscape:window-height="714"
     id="namedview25"
     showgrid="true"
     inkscape:zoom="27.812867"
     inkscape:cx="2.6035021"
     inkscape:cy="7.4753376"
     inkscape:window-x="0"
     inkscape:window-y="28"
     inkscape:window-maximized="1"
     inkscape:current-layer="g21">
    <inkscape:grid
       type="xygrid"
       id="grid836" />
  </sodipodi:namedview>
  <linearGradient
     id="a"
     gradientTransform="matrix(1.7338699,0,0,1.7836298,-50.197128,-58.893096)"
     gradientUnits="userSpaceOnUse"
     x1="64"
     x2="64"
     y1="22.506487"
     y2="93.317558">
    <stop
       offset="0"
       stop-color="#1c1c1c"
       id="stop2" />
    <stop
       offset=".5"
       stop-color="#888"
       id="stop4" />
    <stop
       offset="1"
       id="stop6" />
  </linearGradient>
  <g
     transform="matrix(0,0.1875,-0.1875,0,23.999999,0.99999644)"
     id="g21">
    <path
       d="M 54.892799,3.2812959 V 0.48658747 Z"
       id="path9"
       inkscape:connector-curvature="0"
       style="fill:#ffffff;fill-opacity:0.756881" />
    <g
       id="g19"
       style="fill:#a4c0e4">
      <path
         d="m 29.134871,93.864357 h 70.035614 v 0.916678 H 29.134871 Z"
         transform="matrix(1.5991885,0,0,-5.8180975,-41.258811,663.44531)"
         id="path13"
         inkscape:connector-curvature="0" />
      <path
         d="m 10.66668,5.33318 h 5.333339 V 122.66666 H 10.66668 Z"
         id="path15"
         inkscape:connector-curvature="0" />
      <path
         d="m 106.6668,5.33318 h 5.33334 v 117.33348 h -5.33334 z"
         id="path17"
         inkscape:connector-curvature="0" />
    </g>
    <path
       inkscape:connector-curvature="0"
       style="fill:url(#c-5);fill-rule:evenodd;stroke-width:0.91666669"
       d="m 80.94925,10.668985 v 95.996995 l 10.66652,-0.002 V 68.26536 h 14.39955 v -9.5997 H 91.61577 V 10.667175 Z M 16.6515,20.26786 v 9.59969 h 43.19865 c -0.2249,9.633 -1.46586,27.5367 -5.70283,37.40652 C 48.81815,79.68806 35.69315,92.27534 16.6515,92.2656 v 9.59971 c 24.157,0.0128 39.01897,-14.11381 45.84232,-30.00845 6.82336,-15.89463 7.27599,-33.51267 6.95603,-44.59548 v -6.99352 z"
       id="path17-3" />
  </g>
</svg>
